X:48
T:Tracey's Graduation
R:reel
C:Brenda Stubbert
O:Cape Breton Island
S:http://www.cranfordpub.com
Z:psc, (re-formatted,updated 9/19/04)
N:http://www.cranfordpub.com/stubbert
H:                                                        copyrights Stubbert Music, SOCAN
L:1/8
Q:333
M:C|
K:Ador
E|:AedB eAAG|AedB A2 BA|GE E/E/E DEGA|BedB GABG|
AedB eAAG|AedB A2 BA|GE E/E/E DEGA|[1BedB A2 AG:|[2BedB A2 A||
|:B|Aeed eaag|egfd e2 dc|BG ~G2 DEGA|BedB GABG|
[1Aeed eaag|egfd e2 dc|BG ~G2 DEGA|BedB A2 A:|
[2AedB eAAG|AedB A2 BA|GE E/E/E DEGA|BedB A2 A||
